travel/img/icons/fb.svg

<svg width="23" height="24" viewBox="0 0 23 24" fill="none" xmlns="http://www.w3.org/2000/svg">
<path d="M23 12.0699C23 5.71857 17.8513 0.569853 11.5 0.569853C5.14872 0.569853 0 5.71857 0 12.0699C0 17.8098 4.20538 22.5674 9.70312 23.4301V15.3941H6.7832V12.0699H9.70312V9.53626C9.70312 6.65407 11.42 5.06204 14.0468 5.06204C15.305 5.06204 16.6211 5.28665 16.6211 5.28665V8.11673H15.171C13.7424 8.11673 13.2969 9.00319 13.2969 9.91264V12.0699H16.4863L15.9765 15.3941H13.2969V23.4301C18.7946 22.5674 23 17.8098 23 12.0699Z" fill="white"/>
</svg>

<svg width="23" height="24" viewBox="0 0 23 24" fill="none" xmlns="http://www.w3.org/2000/svg"><path d="M23 12.07C23 5.719 17.851.57 11.5.57S0 5.719 0 12.07c0 5.74 4.205 10.497 9.703 11.36v-8.036h-2.92V12.07h2.92V9.536c0-2.882 1.717-4.474 4.344-4.474 1.258 0 2.574.225 2.574.225v2.83h-1.45c-1.429 0-1.874.886-1.874 1.796v2.157h3.19l-.51 3.324h-2.68v8.036C18.795 22.567 23 17.81 23 12.07Z" fill="#fff"/></svg>
